X: 174
T: Sijieme xiang qingren
L: 1/8
K: E
E C B G [I:setbarnb 1]| 
F4 | 
B C E C | 
F C E C | 
B,4 | 
C C/ C/ E B, | 
C4 | 
F F/ G/ C E | 
G C E C | 
B,4 | 
C C/ C/ E B, | 
C4 | 
G G/ F/ D C | 
B,4 | 
B> e c B | 
A2B G | 
F B G F | 
B CE4 | 
[M:2/4]B CE2 | 
C FE2 |]

@@@ Tune index: 9048
